%
O2006
(T2 D=3.25 CR=0. TAPER=45deg - ZMIN=-0.02 - face mill)
N10 G90 G94 G17
N15 G20
(When using Fusion for Personal Use, the feedrate of rapid)
(moves is reduced to match the feedrate of cutting moves,)
(which can increase machining time. Unrestricted rapid moves)
(are available with a Fusion Subscription.)
N20 G28 G91 Z0.
N25 G90
(Face1)
N30 T2 M6
N35 S14000 M3
N40 G17 G90 G94
N45 G54
N50 G0 X49.1125 Y2.3327
N55 G43 Z0.6 H2
N60 G1 Z0.305 F350.
N65 G18 G3 X48.7875 Z-0.02 I-0.325 K0.
N70 G1 X48.6644
N75 G17 G3 X48.625 Y2.2933 I0. J-0.0394
N80 G2 X47. Y0.6683 I-1.625 J0.
N85 G1 X0.
N90 X-0.9794
N95 G2 X-1.625 Y1.3139 I0. J0.6456
N100 X0. Y2.9389 I1.625 J0.
N105 G1 X47.
N110 X48.625
N115 G3 X48.6644 Y2.9779 I0. J0.0394
N120 G1 X48.7037 Y6.8341
N125 G3 X48.6646 Y6.8739 I-0.0394 J0.0004
N130 X48.625 Y6.8345 I-0.0002 J-0.0394
N135 G2 X47. Y5.2095 I-1.625 J0.
N140 G1 X0.
N145 X-0.9794
N150 G2 X-1.625 Y5.8551 I0. J0.6456
N155 X0. Y7.4801 I1.625 J0.
N160 G1 X47.
N165 X48.625
N170 G3 X48.6644 Y7.5191 I0. J0.0394
N175 G1 X48.7037 Y11.3753
N180 G3 X48.6646 Y11.4151 I-0.0394 J0.0004
N185 X48.625 Y11.3757 I-0.0002 J-0.0394
N190 G2 X47. Y9.7507 I-1.625 J0.
N195 G1 X0.
N200 X-0.9794
N205 G2 X-1.625 Y10.3963 I0. J0.6456
N210 X0. Y12.0213 I1.625 J0.
N215 G1 X47.
N220 X48.625
N225 G3 X48.6644 Y12.0603 I0. J0.0394
N230 G1 X48.7037 Y15.9165
N235 G3 X48.6646 Y15.9563 I-0.0394 J0.0004
N240 X48.625 Y15.9169 I-0.0002 J-0.0394
N245 G2 X47. Y14.2919 I-1.625 J0.
N250 G1 X0.
N255 X-0.9794
N260 G2 X-1.625 Y14.9375 I0. J0.6456
N265 X0. Y16.5625 I1.625 J0.
N270 G1 X47.
N275 X48.625
N280 G3 X48.6644 Y16.6015 I0. J0.0394
N285 G1 X48.7037 Y20.4577
N290 G3 X48.6646 Y20.4975 I-0.0394 J0.0004
N295 X48.625 Y20.4581 I-0.0002 J-0.0394
N300 G2 X47. Y18.8331 I-1.625 J0.
N305 G1 X0.
N310 X-0.9794
N315 G2 X-1.625 Y19.4787 I0. J0.6456
N320 X0. Y21.1037 I1.625 J0.
N325 G1 X47.
N330 X48.625
N335 G3 X48.6644 Y21.1427 I0. J0.0394
N340 G1 X48.7037 Y24.9989
N345 G3 X48.6646 Y25.0387 I-0.0394 J0.0004
N350 X48.625 Y24.9993 I-0.0002 J-0.0394
N355 G2 X47. Y23.3743 I-1.625 J0.
N360 G1 X0.
N365 X-0.9794
N370 G2 X-1.625 Y24.0199 I0. J0.6456
N375 X0. Y25.6449 I1.625 J0.
N380 G1 X47.
N385 X48.625
N390 G3 X48.6644 Y25.6839 I0. J0.0394
N395 G1 X48.7037 Y29.5401
N400 G3 X48.6646 Y29.5799 I-0.0394 J0.0004
N405 X48.625 Y29.5405 I-0.0002 J-0.0394
N410 G2 X47. Y27.9155 I-1.625 J0.
N415 G1 X0.
N420 X-0.9794
N425 G2 X-1.625 Y28.5611 I0. J0.6456
N430 X0. Y30.1861 I1.625 J0.
N435 G1 X47.
N440 X48.625
N445 G3 X48.6644 Y30.2251 I0. J0.0394
N450 G1 X48.7037 Y34.0813
N455 G3 X48.6646 Y34.1211 I-0.0394 J0.0004
N460 X48.625 Y34.0817 I-0.0002 J-0.0394
N465 G2 X47. Y32.4567 I-1.625 J0.
N470 G1 X0.
N475 X-0.9794
N480 G2 X-1.625 Y33.1023 I0. J0.6456
N485 X0. Y34.7273 I1.625 J0.
N490 G1 X47.
N495 X48.625
N500 G3 X48.6644 Y34.7663 I0. J0.0394
N505 G1 X48.7037 Y38.6225
N510 G3 X48.6646 Y38.6623 I-0.0394 J0.0004
N515 X48.625 Y38.6229 I-0.0002 J-0.0394
N520 G2 X47. Y36.9979 I-1.625 J0.
N525 G1 X0.
N530 X-0.9794
N535 G2 X-1.625 Y37.6435 I0. J0.6456
N540 X0. Y39.2685 I1.625 J0.
N545 G1 X47.
N550 X48.625
N555 G3 X48.6644 Y39.3075 I0. J0.0394
N560 G1 X48.7037 Y43.1637
N565 G3 X48.6646 Y43.2035 I-0.0394 J0.0004
N570 X48.625 Y43.1641 I-0.0002 J-0.0394
N575 G2 X47. Y41.5391 I-1.625 J0.
N580 G1 X0.
N585 X-0.9794
N590 G2 X-1.625 Y42.1847 I0. J0.6456
N595 X0. Y43.8097 I1.625 J0.
N600 G1 X47.
N605 X48.625
N610 G3 X48.6644 Y43.8487 I0. J0.0394
N615 G1 X48.7037 Y47.7049
N620 G3 X48.6646 Y47.7447 I-0.0394 J0.0004
N625 X48.625 Y47.7053 I-0.0002 J-0.0394
N630 G2 X47. Y46.0803 I-1.625 J0.
N635 G1 X0.
N640 X-0.9794
N645 G2 X-1.625 Y46.7259 I0. J0.6456
N650 X0. Y48.3509 I1.625 J0.
N655 G1 X47.
N660 X48.625
N665 G3 X48.6644 Y48.3899 I0. J0.0394
N670 G1 X48.7037 Y52.2461
N675 G3 X48.6646 Y52.2859 I-0.0394 J0.0004
N680 X48.625 Y52.2465 I-0.0002 J-0.0394
N685 G2 X47. Y50.6215 I-1.625 J0.
N690 G1 X0.
N695 X-0.9794
N700 G2 X-1.625 Y51.2671 I0. J0.6456
N705 X0. Y52.8921 I1.625 J0.
N710 G1 X47.
N715 X48.625
N720 G3 X48.6644 Y52.9311 I0. J0.0394
N725 G1 X48.7037 Y56.7873
N730 G3 X48.6646 Y56.8271 I-0.0394 J0.0004
N735 X48.625 Y56.7877 I-0.0002 J-0.0394
N740 G2 X47. Y55.1627 I-1.625 J0.
N745 G1 X0.
N750 X-0.9794
N755 G2 X-1.625 Y55.8083 I0. J0.6456
N760 X0. Y57.4333 I1.625 J0.
N765 G1 X47.
N770 X48.625
N775 G3 X48.6644 Y57.4723 I0. J0.0394
N780 G1 X48.7037 Y61.3285
N785 G3 X48.6646 Y61.3683 I-0.0394 J0.0004
N790 X48.625 Y61.3289 I-0.0002 J-0.0394
N795 G2 X47. Y59.7039 I-1.625 J0.
N800 G1 X0.
N805 X-0.9794
N810 G2 X-1.625 Y60.3495 I0. J0.6456
N815 X0. Y61.9745 I1.625 J0.
N820 G1 X47.
N825 X48.625
N830 G3 X48.6644 Y62.0135 I0. J0.0394
N835 G1 X48.7037 Y65.8697
N840 G3 X48.6646 Y65.9095 I-0.0394 J0.0004
N845 X48.625 Y65.8701 I-0.0002 J-0.0394
N850 G2 X47. Y64.2451 I-1.625 J0.
N855 G1 X0.
N860 X-0.9794
N865 G2 X-1.625 Y64.8907 I0. J0.6456
N870 X0. Y66.5157 I1.625 J0.
N875 G1 X47.
N880 X48.625
N885 G3 X48.6644 Y66.5547 I0. J0.0394
N890 G1 X48.7037 Y70.4109
N895 G3 X48.6646 Y70.4507 I-0.0394 J0.0004
N900 X48.625 Y70.4113 I-0.0002 J-0.0394
N905 G2 X47. Y68.7863 I-1.625 J0.
N910 G1 X0.
N915 X-0.9794
N920 G2 X-1.625 Y69.4319 I0. J0.6456
N925 X0. Y71.0569 I1.625 J0.
N930 G1 X47.
N935 X48.625
N940 G3 X48.6644 Y71.0959 I0. J0.0394
N945 G1 X48.7037 Y74.9521
N950 G3 X48.6646 Y74.9919 I-0.0394 J0.0004
N955 X48.625 Y74.9525 I-0.0002 J-0.0394
N960 G2 X47. Y73.3275 I-1.625 J0.
N965 G1 X0.
N970 X-0.9794
N975 G2 X-1.625 Y73.9731 I0. J0.6456
N980 X0. Y75.5981 I1.625 J0.
N985 G1 X47.
N990 X48.625
N995 G3 X48.6644 Y75.6371 I0. J0.0394
N1000 G1 X48.7037 Y79.4933
N1005 G3 X48.6646 Y79.5331 I-0.0394 J0.0004
N1010 X48.625 Y79.4937 I-0.0002 J-0.0394
N1015 G2 X47. Y77.8687 I-1.625 J0.
N1020 G1 X0.
N1025 X-0.9794
N1030 G2 X-1.625 Y78.5143 I0. J0.6456
N1035 X0. Y80.1393 I1.625 J0.
N1040 G1 X47.
N1045 X48.625
N1050 G3 X48.6644 Y80.1783 I0. J0.0394
N1055 G1 X48.7037 Y84.0345
N1060 G3 X48.6646 Y84.0743 I-0.0394 J0.0004
N1065 X48.625 Y84.0349 I-0.0002 J-0.0394
N1070 G2 X47. Y82.4099 I-1.625 J0.
N1075 G1 X0.
N1080 X-0.9794
N1085 G2 X-1.625 Y83.0555 I0. J0.6456
N1090 X0. Y84.6805 I1.625 J0.
N1095 G1 X47.
N1100 X48.625
N1105 G3 X48.6644 Y84.7195 I0. J0.0394
N1110 G1 X48.7037 Y88.5757
N1115 G3 X48.6646 Y88.6155 I-0.0394 J0.0004
N1120 X48.625 Y88.5761 I-0.0002 J-0.0394
N1125 G2 X47. Y86.9511 I-1.625 J0.
N1130 G1 X0.
N1135 X-0.9794
N1140 G2 X-1.625 Y87.5967 I0. J0.6456
N1145 X0. Y89.2217 I1.625 J0.
N1150 G1 X47.
N1155 X48.625
N1160 G3 X48.6644 Y89.2607 I0. J0.0394
N1165 G1 X48.7037 Y93.1169
N1170 G3 X48.6646 Y93.1567 I-0.0394 J0.0004
N1175 X48.625 Y93.1173 I-0.0002 J-0.0394
N1180 G2 X47. Y91.4923 I-1.625 J0.
N1185 G1 X0.
N1190 X-0.9794
N1195 G2 X-1.625 Y92.1379 I0. J0.6456
N1200 X0. Y93.7629 I1.625 J0.
N1205 G1 X47.
N1210 X48.625
N1215 G3 X48.6644 Y93.8019 I0. J0.0394
N1220 G1 X48.7034 Y97.6227
N1225 G3 X48.6246 Y97.6239 I-0.0394 J0.0004
N1230 G2 X47. Y96.0335 I-1.6246 J0.0346
N1235 G1 X0.
N1240 G18 G3 X-0.325 Z0.305 I0. K0.325
N1245 G1 Z0.6
N1250 G17
N1255 G28 G91 Z0.
N1260 G90
N1265 G28 G91 X0. Y0.
N1270 G90
N1275 M30
%
