%
O01001
(T1  D=2. CR=0. - ZMIN=-0.02 - face mill)
N10 G90 G94 G17
N15 G20
N20 G28 G91 Z0.
N25 G90
(2D Pocket1)
(N30 T1 M6)
(N35 S18000 M3)
N35 S14000 M3
N40 G54
N50 G0 X23.7232 Y74.035
N55 G43 Z0.6 H1
N60 Z0.2
N65 G1 Z0.1 F13.333
N70 G3 X25.4124 Y73.165 Z-0.0042 I0.8446 J-0.435 F100.
N75 X25.5178 Y73.6 Z-0.02 I-0.8446 J0.435
N80 G1 Y73.855 F350.
N85 G3 X25.505 Y73.8678 I-0.0128 J0.
N90 G1 X24.995
N95 G3 X24.9822 Y73.855 I0. J-0.0128
N100 G1 Y25.345
N105 G3 X24.995 Y25.3322 I0.0128 J0.
N110 G1 X25.505
N115 G3 X25.5178 Y25.345 I0. J0.0128
N120 G1 Y73.6
N125 G2 X25.9935 Y74.3776 I0.8733 J0.
N130 G3 X25.7801 Y75.2638 I-0.2134 J0.4174
N135 G1 X23.599
N140 G3 X23.5862 Y75.251 I0. J-0.0128
N145 G1 Y23.949
N150 G3 X23.599 Y23.9362 I0.0128 J0.
N155 G1 X26.901
N160 G3 X26.9138 Y23.949 I0. J0.0128
N165 G1 Y75.251
N170 G3 X26.901 Y75.2638 I-0.0128 J0.
N175 G1 X25.7801
N180 G2 X24.7331 Y75.9618 I0. J1.1342
N185 G3 X23.6861 Y76.6598 I-1.047 J-0.4362
N190 G1 X22.203
N195 G3 X22.1902 Y76.647 I0. J-0.0128
N200 G1 Y22.553
N205 G3 X22.203 Y22.5402 I0.0128 J0.
N210 G1 X28.297
N215 G3 X28.3098 Y22.553 I0. J0.0128
N220 G1 Y76.647
N225 G3 X28.297 Y76.6598 I-0.0128 J0.
N230 G1 X23.6861
N235 G2 X22.6391 Y77.3578 I0. J1.1342
N240 G3 X21.5921 Y78.0558 I-1.047 J-0.4362
N245 G1 X20.807
N250 G3 X20.7942 Y78.043 I0. J-0.0128
N255 G1 Y21.157
N260 G3 X20.807 Y21.1442 I0.0128 J0.
N265 G1 X29.693
N270 G3 X29.7058 Y21.157 I0. J0.0128
N275 G1 Y78.043
N280 G3 X29.693 Y78.0558 I-0.0128 J0.
N285 G1 X21.5921
N290 G2 X20.5451 Y78.7538 I0. J1.1342
N295 G3 X19.4981 Y79.4518 I-1.047 J-0.4363
N300 G1 X19.411
N305 G3 X19.3982 Y79.439 I0. J-0.0128
N310 G1 Y19.761
N315 G3 X19.411 Y19.7482 I0.0128 J0.
N320 G1 X31.089
N325 G3 X31.1018 Y19.761 I0. J0.0128
N330 G1 Y79.439
N335 G3 X31.089 Y79.4518 I-0.0128 J0.
N340 G1 X19.4981
N345 G2 X18.7697 Y79.8088 I0. J0.9215
N350 G3 X18.0022 Y79.5462 I-0.3388 J-0.2626
N355 G1 Y18.365
N360 G3 X18.015 Y18.3522 I0.0128 J0.
N365 G1 X32.485
N370 G3 X32.4978 Y18.365 I0. J0.0128
N375 G1 Y80.835
N380 G3 X32.485 Y80.8478 I-0.0128 J0.
N385 G1 X18.015
N390 G3 X18.0022 Y80.835 I0. J-0.0128
N395 G1 Y79.5462
N400 G2 X17.3042 Y78.4992 I-1.1343 J0.
N405 G3 X16.6062 Y77.4522 I0.4362 J-1.047
N410 G1 Y16.969
N415 G3 X16.619 Y16.9562 I0.0128 J0.
N420 G1 X33.881
N425 G3 X33.8938 Y16.969 I0. J0.0128
N430 G1 Y82.231
N435 G3 X33.881 Y82.2438 I-0.0128 J0.
N440 G1 X16.619
N445 G3 X16.6062 Y82.231 I0. J-0.0128
N450 G1 Y77.4522
N455 G2 X15.9082 Y76.4052 I-1.1343 J0.
N460 G3 X15.2102 Y75.3582 I0.4362 J-1.047
N465 G1 Y15.573
N470 G3 X15.223 Y15.5602 I0.0128 J0.
N475 G1 X35.277
N480 G3 X35.2898 Y15.573 I0. J0.0128
N485 G1 Y83.627
N490 G3 X35.277 Y83.6398 I-0.0128 J0.
N495 G1 X15.223
N500 G3 X15.2102 Y83.627 I0. J-0.0128
N505 G1 Y75.3582
N510 G2 X14.5122 Y74.3112 I-1.1342 J0.
N515 G3 X13.8142 Y73.2642 I0.4362 J-1.047
N520 G1 Y14.177
N525 G3 X13.827 Y14.1642 I0.0128 J0.
N530 G1 X36.673
N535 G3 X36.6858 Y14.177 I0. J0.0128
N540 G1 Y85.023
N545 G3 X36.673 Y85.0358 I-0.0128 J0.
N550 G1 X13.827
N555 G3 X13.8142 Y85.023 I0. J-0.0128
N560 G1 Y73.2642
N565 G2 X13.1162 Y72.2172 I-1.1342 J0.
N570 G3 X12.4182 Y71.1702 I0.4362 J-1.047
N575 G1 Y12.781
N580 G3 X12.431 Y12.7682 I0.0128 J0.
N585 G1 X38.069
N590 G3 X38.0818 Y12.781 I0. J0.0128
N595 G1 Y86.419
N600 G3 X38.069 Y86.4318 I-0.0128 J0.
N605 G1 X12.431
N610 G3 X12.4182 Y86.419 I0. J-0.0128
N615 G1 Y71.1702
N620 G2 X11.7202 Y70.1232 I-1.1342 J0.
N625 G3 X11.0222 Y69.0762 I0.4362 J-1.047
N630 G1 Y11.385
N635 G3 X11.035 Y11.3722 I0.0128 J0.
N640 G1 X39.465
N645 G3 X39.4778 Y11.385 I0. J0.0128
N650 G1 Y87.815
N655 G3 X39.465 Y87.8278 I-0.0128 J0.
N660 G1 X11.035
N665 G3 X11.0222 Y87.815 I0. J-0.0128
N670 G1 Y69.0762
N675 G2 X10.3242 Y68.0292 I-1.1342 J0.
N680 G3 X9.6262 Y66.9822 I0.4362 J-1.047
N685 G1 Y9.989
N690 G3 X9.639 Y9.9762 I0.0128 J0.
N695 G1 X40.861
N700 G3 X40.8738 Y9.989 I0. J0.0128
N705 G1 Y89.211
N710 G3 X40.861 Y89.2238 I-0.0128 J0.
N715 G1 X9.639
N720 G3 X9.6262 Y89.211 I0. J-0.0128
N725 G1 Y66.9822
N730 G2 X8.9282 Y65.9352 I-1.1343 J0.
N735 G3 X8.2302 Y64.8882 I0.4362 J-1.047
N740 G1 Y8.593
N745 G3 X8.243 Y8.5802 I0.0128 J0.
N750 G1 X42.257
N755 G3 X42.2698 Y8.593 I0. J0.0128
N760 G1 Y90.607
N765 G3 X42.257 Y90.6198 I-0.0128 J0.
N770 G1 X8.243
N775 G3 X8.2302 Y90.607 I0. J-0.0128
N780 G1 Y64.8882
N785 G2 X7.5322 Y63.8412 I-1.1342 J0.
N790 G3 X6.8342 Y62.7942 I0.4362 J-1.047
N795 G1 Y7.197
N800 G3 X6.847 Y7.1842 I0.0128 J0.
N805 G1 X43.653
N810 G3 X43.6658 Y7.197 I0. J0.0128
N815 G1 Y92.003
N820 G3 X43.653 Y92.0158 I-0.0128 J0.
N825 G1 X6.847
N830 G3 X6.8342 Y92.003 I0. J-0.0128
N835 G1 Y62.7942
N840 G2 X6.1362 Y61.7472 I-1.1343 J0.
N845 G3 X5.4382 Y60.7002 I0.4362 J-1.047
N850 G1 Y5.801
N855 G3 X5.451 Y5.7882 I0.0128 J0.
N860 G1 X45.049
N865 G3 X45.0618 Y5.801 I0. J0.0128
N870 G1 Y93.399
N875 G3 X45.049 Y93.4118 I-0.0128 J0.
N880 G1 X5.451
N885 G3 X5.4382 Y93.399 I0. J-0.0128
N890 G1 Y60.7002
N895 G2 X4.7402 Y59.6532 I-1.1343 J0.
N900 G3 X4.0422 Y58.6062 I0.4362 J-1.047
N905 G1 Y4.405
N910 G3 X4.055 Y4.3922 I0.0128 J0.
N915 G1 X46.445
N920 G3 X46.4578 Y4.405 I0. J0.0128
N925 G1 Y94.795
N930 G3 X46.445 Y94.8078 I-0.0128 J0.
N935 G1 X4.055
N940 G3 X4.0422 Y94.795 I0. J-0.0128
N945 G1 Y58.6062
N950 G2 X3.3442 Y57.5592 I-1.1343 J0.
N955 G3 X2.6462 Y56.5122 I0.4362 J-1.047
N960 G1 Y3.009
N965 G3 X2.659 Y2.9962 I0.0128 J0.
N970 G1 X47.841
N975 G3 X47.8538 Y3.009 I0. J0.0128
N980 G1 Y96.191
N985 G3 X47.841 Y96.2038 I-0.0128 J0.
N990 G1 X2.659
N995 G3 X2.6462 Y96.191 I0. J-0.0128
N1000 G1 Y56.5122
N1005 G2 X1.9481 Y55.4651 I-1.1344 J0.
N1010 G3 X1.25 Y54.4179 I0.4363 J-1.0471
N1015 G1 Y1.6
N1020 X49.25
N1025 Y97.6
N1030 X1.25
N1035 Y54.4179
N1040 G0 Z0.6
N1050 G28 G91 Z0.
N1055 G90
N1060 G28 G91 X0. Y0.
N1065 G90
N1070 M30
N1075 M99
%
